src/components/00-materials/images-raw/Pan.svg

<svg width="96" height="96" viewBox="0 0 96 96" fill="none" xmlns="http://www.w3.org/2000/svg">
<path d="M42.25 76.54C53.986 76.54 63.5 67.0261 63.5 55.29C63.5 43.554 53.986 34.04 42.25 34.04C30.5139 34.04 21 43.554 21 55.29C21 67.0261 30.5139 76.54 42.25 76.54Z" stroke="#00008F" stroke-width="2" stroke-linecap="round" stroke-linejoin="round"/>
<path d="M78.72 15.6C78.1917 15.1709 77.5216 14.9554 76.8422 14.9961C76.1627 15.0368 75.5233 15.3308 75.05 15.82L57.1 33.82C52.7 30.29 48.33 29.6 42.25 29.6C37.1631 29.606 32.1921 31.1202 27.9658 33.9513C23.7395 36.7824 20.4476 40.8032 18.5064 45.5051C16.5652 50.2071 16.0619 55.3791 17.0601 60.3672C18.0583 65.3552 20.5132 69.9352 24.1144 73.528C27.7156 77.1208 32.3014 79.5651 37.2917 80.5517C42.2821 81.5383 47.4529 81.0229 52.1503 79.0707C56.8478 77.1186 60.8608 73.8173 63.6821 69.5843C66.5033 65.3514 68.0059 60.377 68 55.29C67.9351 48.6381 65.4462 42.2382 61 37.29L78.89 19.1C79.2967 18.5977 79.5041 17.9632 79.4728 17.3176C79.4414 16.672 79.1734 16.0606 78.72 15.6V15.6Z" stroke="#00008F" stroke-width="2" stroke-linecap="round" stroke-linejoin="round"/>
<path d="M39.06 58.0302C41.5784 58.0302 43.62 55.9886 43.62 53.4702C43.62 50.9517 41.5784 48.9102 39.06 48.9102C36.5416 48.9102 34.5 50.9517 34.5 53.4702C34.5 55.9886 36.5416 58.0302 39.06 58.0302Z" stroke="#00008F" stroke-width="2" stroke-linecap="round" stroke-linejoin="round"/>
<path d="M51.81 54.85C52.3893 53.8542 52.693 52.7221 52.69 51.57C52.6821 49.8248 51.9832 48.1537 50.7463 46.9225C49.5094 45.6912 47.8352 45 46.09 45C45.2902 44.9986 44.497 45.1444 43.75 45.43C43.0317 44.2886 41.9804 43.3951 40.7382 42.87C39.496 42.345 38.1226 42.2137 36.8034 42.4939C35.4843 42.7741 34.2828 43.4523 33.3612 44.4369C32.4397 45.4215 31.8424 46.6652 31.65 48C30.1105 48.3456 28.746 49.232 27.8046 50.4983C26.8633 51.7645 26.4075 53.3265 26.52 54.9003C26.6326 56.4741 27.3061 57.9552 28.4182 59.0746C29.5302 60.1939 31.007 60.8771 32.58 61V61.62C32.5792 62.9989 33.011 64.3433 33.8145 65.4639C34.6181 66.5845 35.7529 67.4248 37.0592 67.8665C38.3654 68.3082 39.7773 68.329 41.096 67.926C42.4147 67.523 43.5738 66.7164 44.41 65.62C45.1108 66.2257 45.9314 66.6769 46.8183 66.9442C47.7053 67.2114 48.6385 67.2886 49.5573 67.1708C50.4761 67.0531 51.3597 66.7429 52.1506 66.2606C52.9414 65.7783 53.6217 65.1347 54.147 64.3718C54.6724 63.6089 55.031 62.7438 55.1995 61.8329C55.368 60.9221 55.3425 59.9859 55.1248 59.0856C54.9071 58.1852 54.5021 57.3409 53.9361 56.6076C53.3701 55.8744 52.6559 55.2686 51.84 54.83L51.81 54.85Z" stroke="#00008F" stroke-width="2" stroke-linecap="round" stroke-linejoin="round"/>
</svg>

<svg width="96" height="96" viewBox="0 0 96 96" fill="none" xmlns="http://www.w3.org/2000/svg"><path d="M42.25 76.54c11.736 0 21.25-9.514 21.25-21.25s-9.514-21.25-21.25-21.25S21 43.554 21 55.29s9.514 21.25 21.25 21.25z" stroke="#00008F" stroke-width="2" stroke-linecap="round" stroke-linejoin="round"/><path d="M78.72 15.6a2.72 2.72 0 00-3.67.22l-17.95 18c-4.4-3.53-8.77-4.22-14.85-4.22A25.72 25.72 0 1068 55.29a27.33 27.33 0 00-7-18L78.89 19.1a2.63 2.63 0 00-.17-3.5v0z" stroke="#00008F" stroke-width="2" stroke-linecap="round" stroke-linejoin="round"/><path d="M39.06 58.03a4.56 4.56 0 100-9.12 4.56 4.56 0 000 9.12z" stroke="#00008F" stroke-width="2" stroke-linecap="round" stroke-linejoin="round"/><path d="M51.81 54.85a6.49 6.49 0 00.88-3.28 6.6 6.6 0 00-8.94-6.14A6.59 6.59 0 0031.65 48a6.59 6.59 0 00.93 13v.62a6.59 6.59 0 0011.83 4 6.592 6.592 0 009.737-1.248 6.59 6.59 0 00-2.307-9.542l-.03.02z" stroke="#00008F" stroke-width="2" stroke-linecap="round" stroke-linejoin="round"/></svg>
